assets/img/braze_icons/map-01.svg

<svg fill="none" height="24" viewBox="0 0 24 24" width="24" xmlns="http://www.w3.org/2000/svg"><g fill="#801ed7"><path d="m8 2.79822c0-.45269 0-.67904-.0951-.8103-.08296-.1145-.21051-.18853-.35109-.20375-.16115-.01744-.35767.09486-.75072.31946l-5.29923 3.02813c-.31157.17804-.50386.50938-.50386.86824v16c0 .3565.18976.686.49807.8649.30832.1789.68857.1802.99807.0033l4.69768-2.6843c.29362-.1678.44043-.2517.54724-.3696.0945-.1043.16591-.2274.20958-.3612.04936-.1512.04936-.3203.04936-.6584z"/><path d="m10 18.7947c0 .3381 0 .5072.0494.6584.0436.1338.115.2569.2095.3612.1069.1179.2537.2018.5473.3696l2.9969 1.7125c.393.2246.5896.3369.7507.3194.1406-.0152.2681-.0892.3511-.2037.0951-.1313.0951-.3576.0951-.8103v-15.99646c0-.33818 0-.50726-.0494-.65848-.0436-.1338-.115-.25686-.2095-.36116-.1069-.11788-.2537-.20177-.5473-.36955l-2.9969-1.71252c-.393-.2246-.5896-.3369-.7507-.31946-.1406.01522-.2681.08925-.3511.20375-.0951.13126-.0951.35761-.0951.8103z"/><path d="m23 2c0-.36879-.203-.70765-.5281-.88167-.3252-.174022-.7197-.15495-1.0266.04962l-3.7328 2.48855c-.2605.17366-.3908.26049-.485.37521-.0835.10156-.1461.21858-.1844.34437-.0431.14209-.0431.29863-.0431.6117v16.05262c0 .4856 0 .7283.1012.8622.0882.1166.2231.1887.369.1974.1675.01.3695-.1246.7736-.394l4.3109-2.8739c.2782-.1855.4453-.4977.4453-.8321z"/></g></svg>

<svg width="24" height="24" viewBox="0 0 24 24" fill="none" xmlns="http://www.w3.org/2000/svg">
<path d="M8 2.79822C8 2.34553 8 2.11918 7.9049 1.98792C7.82194 1.87342 7.69439 1.79939 7.55381 1.78417C7.39266 1.76673 7.19614 1.87903 6.80309 2.10363L1.50386 5.13176C1.19229 5.3098 1 5.64114 1 6V22C1 22.3565 1.18976 22.686 1.49807 22.8649C1.80639 23.0438 2.18664 23.0451 2.49614 22.8682L7.19382 20.1839C7.48744 20.0161 7.63425 19.9322 7.74106 19.8143C7.83556 19.71 7.90697 19.5869 7.95064 19.4531C8 19.3019 8 19.1328 8 18.7947L8 2.79822Z" fill="#801ED7"/>
<path d="M10 18.7947C10 19.1328 10 19.3019 10.0494 19.4531C10.093 19.5869 10.1644 19.71 10.2589 19.8143C10.3658 19.9322 10.5126 20.0161 10.8062 20.1839L13.8031 21.8964C14.1961 22.121 14.3927 22.2333 14.5538 22.2158C14.6944 22.2006 14.8219 22.1266 14.9049 22.0121C15 21.8808 15 21.6545 15 21.2018L15 5.20534C15 4.86716 15 4.69808 14.9506 4.54686C14.907 4.41306 14.8356 4.29 14.7411 4.1857C14.6342 4.06782 14.4874 3.98393 14.1938 3.81615L11.1969 2.10363C10.8039 1.87903 10.6073 1.76673 10.4462 1.78417C10.3056 1.79939 10.1781 1.87342 10.0951 1.98792C10 2.11918 10 2.34553 10 2.79822L10 18.7947Z" fill="#801ED7"/>
<path d="M23 2C23 1.63121 22.797 1.29235 22.4719 1.11833C22.1467 0.944308 21.7522 0.96338 21.4453 1.16795L17.7125 3.6565C17.452 3.83016 17.3217 3.91699 17.2275 4.03171C17.144 4.13327 17.0814 4.25029 17.0431 4.37608C17 4.51817 17 4.67471 17 4.98778L17 21.0404C17 21.526 17 21.7687 17.1012 21.9026C17.1894 22.0192 17.3243 22.0913 17.4702 22.1C17.6377 22.11 17.8397 21.9754 18.2438 21.706L22.5547 18.8321C22.8329 18.6466 23 18.3344 23 18V2Z" fill="#801ED7"/>
</svg>
